packages/kaspersky-hexa-ui-icons/src/iconsSVGs/24/Loader.svg

<svg width="24" height="24" viewBox="0 0 24 24" fill="none" xmlns="http://www.w3.org/2000/svg">
<path fill-rule="evenodd" clip-rule="evenodd" d="M11 3C11 2.44772 11.4477 2 12 2C17.5228 2 22 6.47715 22 12C22 17.5228 17.5228 22 12 22C6.47715 22 2 17.5228 2 12C2 11.4477 2.44772 11 3 11C3.55228 11 4 11.4477 4 12C4 16.4183 7.58172 20 12 20C16.4183 20 20 16.4183 20 12C20 7.58172 16.4183 4 12 4C11.4477 4 11 3.55228 11 3Z" fill="black"/>
</svg>

<svg xmlns="http://www.w3.org/2000/svg" width="24" height="24" fill="none" viewBox="0 0 24 24"><path fill="#000" fill-rule="evenodd" d="M11 3c0-.5523.4477-1 1-1 5.5228 0 10 4.4772 10 10s-4.4772 10-10 10S2 17.5228 2 12c0-.5523.4477-1 1-1s1 .4477 1 1c0 4.4183 3.5817 8 8 8s8-3.5817 8-8-3.5817-8-8-8c-.5523 0-1-.4477-1-1"/></svg>
